X:0826
T:The Soldier's Adieu.
N:bar 14 is |=f3F E2 ze| in the book
M:C
L:1/8
Q:1/4=90
I: ||
Z:Jack Campin * www.campin.me.uk * 2009
K:G
 d|g3 f  g2 f2 | d3   c  B2  z   c   |d2 d2  B2   G2 |F2 A2 z2\
d2|g3 f  g2(fe)| d3   c  B2  B>d     |c3  B (BA) (GF)|G3  A G2 z
 F|B3 B  d2 d2 | g2  g2  B2  B/d/g/b/|a3  d   d2 ^c>d|d2 d2 z2
d2|d3 c  Bcde  |=f3  =F  E2  z   e   |e3  d  ^c>d ef |g3  G F2zd|gfge   d3e/c/  |B>c A>G G3
 G|B2G2 (G4    | d)e dc  B2  d2      |g2 g2   B3   c |d2 B2 e4  |e2d/c/ A/G/ HF2
d2|g3 d  a2 d2 | b2  g2  d2 Hz   d   |b3  a   g3   f |e3  d c3 B|A2Bc   d3d     |B2G2 z2z|]
<end>
<start>
